X: 10762
M: C|
L: 1/8
K: Amix
e |\
g>de=c BGGB | A<Ae>B cAA :|\
(^g |\
a)eeg BGG(^g | a)eef g>bag |
g>de>=c BGGB | A<Ae>B cAA^g |\
aee=g BGG(^g | a)eef gbaf |\
gde=c BdGB | Aaef cAA |]


